X:190
T: O WUNDERBARES TIEFES SCHWEIGEN
N: B0225
O: Europa, Mitteleuropa, Deutschland
R: Tageszeiten - Lied, Morgen
M: 3/4
L: 1/16
K: Eb
B,2G3F | E6G2c3B | B2A2F6
F2 | G3GE6E2 | F3FB,4z2
B,2 | E2E2G2G2B3B | B2e2d6
c2 | B3Bc2B2A3F | E4z2

@@@ Tune index: 1993
